X:79
T:The Star Proclaims the King is Here
%%stretchlast false
M:4/4
L:1/4
K:C clef=C1
"^I"[C,E,G,C]2 [C,E,CG] "^V¹"[B,,D,DG] | "^I"[C,G,CE] "^V"[G,,G,B,D] "^I"[C,E,G,E] "^♭v°¹"[A,,C,A,^F] | "^V"[G,,D,B,G]3/2 "^I"[C,E,CG]/ [C,G,CE] "^V"[G,,B,DG] | "^ii"[D,A,DF] "^V¹"[B,,G,DG] "^I"[C,G,CE] "^V"[G,,G,B,D] | "^I"[C,E,C]3/2 [C,E,CG]/ "^IV"[F,,F,CA] "^IV¹"[A,,F,CA] | "^I"[C,G,CE] "^V"[G,,B,DG] "^ii"[D,A,DF] [D,,A,DF] | "^VI"[A,,A,^CE]3/2 "^vi"[A,,E,Cc]/ "^iii"[E,,G,EB] "^IV"[F,,F,CA] | "^I"[C,E,CG] "^vi"[A,,E,CA] "^ii"[D,F,A,F]/ [D,F,A,E]/ "^V"[G,,G,B,D] | "^I"[C,E,C]4 |]
